X:1
T:Title
%%score { 1 | 2 }
L:1/8
Q:1/4=100
M:4/4
K:Eb
V:1 treble nm="Grand Piano"
V:2 bass 
V:1
 [GB]3 [GB] [Ac][GB]G[FA] | [EG]4 [DF]2 z2 | [Fd]3 [Ac] [GB]2 [DF]2 | [EG]2 [FA]2 [EG]4 | %4
w: John~R.~Sweney * * * * *||||
 [Ge]3 [Ge] [Bd]2 [Ac]2 | [GB]2 [Ac]2 [GB]2 [EG]2 | [EF]3 [Ec] [EB][B,EG] [A,DF]>[B,DG] | %7
w: |||
 [G,E]6 z2 | [DF]3 [_D=E] [=DF]2 [_EG]2 | F2 E2 G [GB]3 | [Ac]2 [Ae]2 [Ac]2 [GB]2 | [GB]3 G F4 | %12
w: |||||
 G3 A B2 [Ge]2 | [Bd]2 [Ac]2 [GB]2 [EG]2 | [EF]3 [Ec] [EB][B,EG] [A,DF]>[B,DG] | [G,E]6 z2 |] %16
w: ||||
V:2
 [E,E]3 [E,E] [E,E][E,E][E,E][E,B,] | [B,,B,]4 [B,,B,]2 z2 | [B,,B,]3 [B,,B,] [B,,B,]2 [B,,B,]2 | %3
 [B,,B,]2 [B,,B,]2 [E,B,]4 | [E,B,]3 [E,B,] [E,E]2 [E,E]2 | [E,E]2 [E,E]2 [E,E]2 [E,B,]2 | %6
 [A,C]3 [A,,A,] [B,,G,]B,, B,,>B,, | E,6 z2 | [B,,B,]3 [B,,B,] [B,,B,]2 [B,,B,]2 | %9
 [E,A,B,]2 [E,G,B,]2 [E,B,E] [E,E]3 | [A,E]2 [A,C]2 [E,E]2 [E,E]2 | [E,E]3 [G,B,E] [B,D]4 | %12
 [E,B,E]3 [F,B,D] [G,B,E]2 [E,B,]2 | [E,E]2 [E,E]2 [E,E]2 [E,B,]2 | %14
 [A,C]3 [A,,A,] [B,,G,]B,, B,,>B,, | E,6 z2 |] %16

